source/img/icons/clock.svg

<svg width="27" height="31" viewBox="0 0 27 31" fill="none" xmlns="http://www.w3.org/2000/svg">
<path d="M6.12057 0C5.0538 0 5.0538 1.5831 6.12057 1.5831H12.7878V3.18731C5.96055 3.62002 0.562721 9.41417 0.562721 16.4854C0.562721 20.4959 2.31222 24.1159 5.07514 26.5539C5.55518 26.976 5.61919 27.7254 5.18181 28.1897L3.64567 29.7412C2.89894 30.4272 4.00837 31.4931 4.68043 30.7438L6.68595 28.7069C7.03798 28.3692 7.5607 28.2847 7.99807 28.4958C9.72279 29.3397 11.6191 29.784 13.5432 29.795C15.4673 29.8059 17.3687 29.3833 19.1031 28.5591C19.5298 28.348 20.0632 28.4325 20.4045 28.7702L22.3461 30.7438C23.0288 31.377 24.0102 30.4272 23.3915 29.7412L21.9407 28.2636C21.4926 27.8098 21.5567 27.0605 22.0474 26.6277C23.5031 25.3585 24.6674 23.7959 25.4623 22.0447C26.2571 20.2936 26.6641 18.3944 26.6558 16.4748C26.6558 9.40362 21.226 3.59891 14.388 3.18731V1.5831H21.0553C22.122 1.5831 22.122 0 21.0553 0H6.12057ZM2.00285 16.4748C2.00285 9.94187 7.198 4.65431 13.6093 4.65431C20.0098 4.65431 25.205 9.94187 25.205 16.4748C25.205 23.0183 20.0098 28.3164 13.6093 28.3164C7.20867 28.3164 2.00285 23.0183 2.00285 16.4748ZM12.7985 8.37988C12.7985 7.28226 14.4627 7.28226 14.4627 8.37988V17.0131C14.4627 17.237 14.3728 17.4517 14.2127 17.6101C14.0527 17.7684 13.8356 17.8574 13.6093 17.8574C13.3961 17.8574 13.1915 17.7743 13.0397 17.6262C12.888 17.478 12.8013 17.2767 12.7985 17.0658V8.37988ZM7.80605 10.9973C8.11444 10.9973 8.4102 10.8761 8.62826 10.6603C8.84632 10.4446 8.96883 10.152 8.96883 9.84688C8.96883 9.54178 8.84632 9.24918 8.62826 9.03344C8.4102 8.8177 8.11444 8.6965 7.80605 8.6965C7.51825 8.72386 7.25108 8.85633 7.05666 9.06805C6.86224 9.27977 6.75453 9.55556 6.75453 9.84161C6.75453 10.1277 6.86224 10.4034 7.05666 10.6152C7.25108 10.8269 7.51825 10.9593 7.80605 10.9867V10.9973ZM19.4018 10.9973C19.7102 10.9973 20.0059 10.8761 20.224 10.6603C20.4421 10.4446 20.5646 10.152 20.5646 9.84688C20.5646 9.54178 20.4421 9.24918 20.224 9.03344C20.0059 8.8177 19.7102 8.6965 19.4018 8.6965C19.114 8.72386 18.8468 8.85633 18.6524 9.06805C18.458 9.27977 18.3503 9.55556 18.3503 9.84161C18.3503 10.1277 18.458 10.4034 18.6524 10.6152C18.8468 10.8269 19.114 10.9593 19.4018 10.9867V10.9973ZM8.96883 23.5882C8.96883 25.1185 6.64328 25.1185 6.64328 23.5882C6.64328 22.0579 8.96883 22.0579 8.96883 23.5882ZM13.6093 27.0288C13.7706 27.0441 13.9334 27.0259 14.0872 26.9754C14.241 26.9248 14.3824 26.843 14.5024 26.7352C14.6223 26.6273 14.7182 26.4959 14.7838 26.3493C14.8494 26.2026 14.8833 26.044 14.8833 25.8837C14.8833 25.7233 14.8494 25.5648 14.7838 25.4181C14.7182 25.2715 14.6223 25.14 14.5024 25.0322C14.3824 24.9244 14.241 24.8426 14.0872 24.792C13.9334 24.7414 13.7706 24.7232 13.6093 24.7386C13.3215 24.7659 13.0543 24.8984 12.8599 25.1101C12.6654 25.3219 12.5577 25.5976 12.5577 25.8837C12.5577 26.1697 12.6654 26.4455 12.8599 26.6572C13.0543 26.869 13.3215 27.0014 13.6093 27.0288ZM5.49117 16.6437C5.50668 16.8033 5.48829 16.9643 5.43717 17.1165C5.38606 17.2687 5.30336 17.4086 5.19437 17.5273C5.08539 17.646 4.95252 17.7408 4.80431 17.8057C4.6561 17.8706 4.49581 17.9041 4.33373 17.9041C4.17166 17.9041 4.01137 17.8706 3.86316 17.8057C3.71494 17.7408 3.58208 17.646 3.4731 17.5273C3.36411 17.4086 3.28141 17.2687 3.23029 17.1165C3.17918 16.9643 3.16079 16.8033 3.17629 16.6437C3.20396 16.3589 3.33785 16.0946 3.55185 15.9023C3.76585 15.7099 4.04461 15.6033 4.33373 15.6033C4.62286 15.6033 4.90162 15.7099 5.11562 15.9023C5.32962 16.0946 5.46351 16.3589 5.49117 16.6437ZM22.8794 17.794C23.0408 17.8094 23.2036 17.7912 23.3574 17.7406C23.5112 17.6901 23.6526 17.6082 23.7726 17.5004C23.8925 17.3926 23.9884 17.2611 24.054 17.1145C24.1196 16.9679 24.1535 16.8093 24.1535 16.6489C24.1535 16.4886 24.1196 16.33 24.054 16.1834C23.9884 16.0367 23.8925 15.9053 23.7726 15.7975C23.6526 15.6896 23.5112 15.6078 23.3574 15.5573C23.2036 15.5067 23.0408 15.4885 22.8794 15.5038C22.5916 15.5312 22.3245 15.6637 22.13 15.8754C21.9356 16.0871 21.8279 16.3629 21.8279 16.6489C21.8279 16.935 21.9356 17.2108 22.13 17.4225C22.3245 17.6342 22.5916 17.7667 22.8794 17.794ZM20.5646 23.5987C20.5646 25.1185 18.239 25.1185 18.239 23.5882C18.239 22.0579 20.5646 22.0579 20.5646 23.5882V23.5987Z" fill="white"/>
</svg>

<svg xmlns="http://www.w3.org/2000/svg" width="27" height="31" fill="none" viewBox="0 0 27 31"><path fill="#fff" d="M6.12 0c-1.066 0-1.066 1.583 0 1.583h6.668v1.604C5.96 3.62.563 9.414.563 16.485c0 4.01 1.75 7.63 4.512 10.069.48.422.544 1.171.107 1.636L3.646 29.74c-.747.686.362 1.752 1.034 1.003l2.006-2.037a1.164 1.164 0 0 1 1.312-.211 12.785 12.785 0 0 0 11.105.063c.427-.211.96-.127 1.301.211l1.942 1.974c.683.633 1.664-.317 1.046-1.003l-1.451-1.477c-.448-.454-.384-1.203.106-1.636a13.467 13.467 0 0 0 3.415-4.583 13.335 13.335 0 0 0 1.194-5.57c0-7.071-5.43-12.876-12.268-13.288V1.583h6.667c1.067 0 1.067-1.583 0-1.583H6.121ZM2.004 16.475c0-6.533 5.195-11.82 11.606-11.82 6.4 0 11.596 5.287 11.596 11.82 0 6.543-5.195 11.841-11.596 11.841-6.4 0-11.606-5.298-11.606-11.841ZM12.799 8.38c0-1.098 1.664-1.098 1.664 0v8.633a.84.84 0 0 1-.25.597.858.858 0 0 1-.604.247.816.816 0 0 1-.57-.23.798.798 0 0 1-.24-.561V8.38Zm-4.993 2.617c.308 0 .604-.12.822-.337a1.144 1.144 0 0 0 0-1.627 1.17 1.17 0 0 0-.822-.336c-.288.027-.555.16-.75.371a1.144 1.144 0 0 0 0 1.547c.195.212.462.344.75.372v.01Zm11.596 0c.308 0 .604-.12.822-.337a1.144 1.144 0 0 0 0-1.627 1.17 1.17 0 0 0-.822-.336c-.288.027-.555.16-.75.371a1.144 1.144 0 0 0 0 1.547c.195.212.462.344.75.372v.01ZM8.969 23.588c0 1.53-2.326 1.53-2.326 0s2.326-1.53 2.326 0Zm4.64 3.44a1.176 1.176 0 0 0 .893-.293 1.153 1.153 0 0 0 .381-.851 1.14 1.14 0 0 0-.38-.852 1.167 1.167 0 0 0-.894-.293c-.287.027-.555.16-.75.371a1.143 1.143 0 0 0 0 1.547c.195.212.463.344.75.372ZM5.491 16.645a1.139 1.139 0 0 1-.297.883 1.162 1.162 0 0 1-.86.377 1.173 1.173 0 0 1-.86-.377 1.148 1.148 0 0 1-.298-.883c.028-.285.162-.55.376-.742a1.17 1.17 0 0 1 1.564 0c.214.193.348.457.375.742Zm17.388 1.15a1.173 1.173 0 0 0 .894-.294 1.152 1.152 0 0 0 .38-.851 1.14 1.14 0 0 0-.38-.852 1.164 1.164 0 0 0-.894-.293c-.287.027-.555.16-.749.371a1.144 1.144 0 0 0 0 1.547c.195.212.462.345.75.372Zm-2.314 5.805c0 1.52-2.326 1.52-2.326-.01 0-1.531 2.326-1.531 2.326 0v.01Z"/></svg>
